actions/16/view-pim-notes.svg

<svg xmlns="http://www.w3.org/2000/svg" viewBox="0 0 16 16">
  <defs id="defs3051">
<style type="text/css" id="current-color-scheme">.ColorScheme-Text {color:#fcfcfc;}</style>
  </defs>
 <path style="fill:currentColor;fill-opacity:1;stroke:none" 
       d="M 3,2 V 3 H 2 v 9 c 0,0 0,2 2,2 2,0 6,0 8,0 2,0 2,-2 2,-2 V 3 H 13 V 2 H 12 V 3 H 11 V 2 H 10 V 3 H 6 V 2 H 5 V 3 H 4 V 2 Z m 0,2 h 10 v 8 c 0,0 0,1 -1,1 -1,0 -7,0 -8,0 -1,0 -1,-1 -1,-1 z m 1,1 v 1 h 8 V 5 Z M 4,7 V 8 H 8 V 7 Z m 0,2 v 1 h 6 V 9 Z m 6,2 v 1 h 2 v -1 z"
     class="ColorScheme-Text"
     />
</svg>

<svg xmlns="http://www.w3.org/2000/svg" viewBox="0 0 16 16">
  <defs id="defs3051">
    <style type="text/css" id="current-color-scheme">
      .ColorScheme-Text {
        color:#eff0f1;
      }
      </style>
  </defs>
 <path style="fill:currentColor;fill-opacity:1;stroke:none" 
       d="M 3 2 L 3 3 L 2 3 L 2 14 L 14 14 L 14 3 L 13 3 L 13 2 L 12 2 L 12 3 L 11 3 L 11 2 L 10 2 L 10 3 L 6 3 L 6 2 L 5 2 L 5 3 L 4 3 L 4 2 L 3 2 z M 3 4 L 13 4 L 13 13 L 3 13 L 3 4 z M 4 5 L 4 6 L 12 6 L 12 5 L 4 5 z M 4 7 L 4 8 L 8 8 L 8 7 L 4 7 z M 4 9 L 4 10 L 10 10 L 10 9 L 4 9 z M 10 11 L 10 12 L 12 12 L 12 11 L 10 11 z "
     class="ColorScheme-Text"
     />
</svg>
